public/img/icons/dashboard.svg

<svg xmlns="http://www.w3.org/2000/svg" width="19" height="19">
            <path paintOrder="stroke fill markers" fillRule="evenodd" d="M 7.960728883743286 10.941009521484375 C 7.960728883743286 10.941009521484375 3.097883939743042 10.941009521484375 3.097883939743042 10.941009521484375 C 2.4924795627593994 10.941009521484375 1.999936580657959 11.433677673339844 1.999936580657959 12.039112091064453 C 1.999936580657959 12.039112091064453 1.999936580657959 16.90190315246582 1.999936580657959 16.90190315246582 C 1.999936580657959 17.507259368896484 2.4924795627593994 17.999927520751953 3.097883939743042 17.999927520751953 C 3.097883939743042 17.999927520751953 7.960728883743286 17.999927520751953 7.960728883743286 17.999927520751953 C 8.566133260726929 17.999927520751953 9.058780550956726 17.507259368896484 9.058780550956726 16.90190315246582 C 9.058780550956726 16.90190315246582 9.058780550956726 12.039112091064453 9.058780550956726 12.039112091064453 C 9.058780550956726 11.433677673339844 8.566133260726929 10.941009521484375 7.960728883743286 10.941009521484375 Z M 7.803849458694458 12.19598388671875 C 7.803849458694458 12.19598388671875 7.803849458694458 16.745031356811523 7.803849458694458 16.745031356811523 C 7.803849458694458 16.745031356811523 3.25476336479187 16.745031356811523 3.25476336479187 16.745031356811523 C 3.25476336479187 16.745031356811523 3.25476336479187 12.19598388671875 3.25476336479187 12.19598388671875 C 3.25476336479187 12.19598388671875 7.803849458694458 12.19598388671875 7.803849458694458 12.19598388671875 Z M 7.960728883743286 1.9999427795410156 C 7.960728883743286 1.9999427795410156 3.097883939743042 1.9999427795410156 3.097883939743042 1.9999427795410156 C 2.4924795627593994 1.9999427795410156 1.999936580657959 2.492532730102539 1.999936580657959 3.0979671478271484 C 1.999936580657959 3.0979671478271484 1.999936580657959 7.96068000793457 1.999936580657959 7.96068000793457 C 1.999936580657959 8.56611442565918 2.4924795627593994 9.058704376220703 3.097883939743042 9.058704376220703 C 3.097883939743042 9.058704376220703 7.960728883743286 9.058704376220703 7.960728883743286 9.058704376220703 C 8.566133260726929 9.058704376220703 9.058780550956726 8.56611442565918 9.058780550956726 7.96068000793457 C 9.058780550956726 7.96068000793457 9.058780550956726 3.0979671478271484 9.058780550956726 3.0979671478271484 C 9.058780550956726 2.492532730102539 8.566133260726929 1.9999427795410156 7.960728883743286 1.9999427795410156 Z M 7.803849458694458 3.2548389434814453 C 7.803849458694458 3.2548389434814453 7.803849458694458 7.803808212280273 7.803849458694458 7.803808212280273 C 7.803849458694458 7.803808212280273 3.25476336479187 7.803808212280273 3.25476336479187 7.803808212280273 C 3.25476336479187 7.803808212280273 3.25476336479187 3.2548389434814453 3.25476336479187 3.2548389434814453 C 3.25476336479187 3.2548389434814453 7.803849458694458 3.2548389434814453 7.803849458694458 3.2548389434814453 Z M 16.90181303024292 1.9999427795410156 C 16.90181303024292 1.9999427795410156 12.03917670249939 1.9999427795410156 12.03917670249939 1.9999427795410156 C 11.43366801738739 1.9999427795410156 10.94112503528595 2.492532730102539 10.94112503528595 3.0979671478271484 C 10.94112503528595 3.0979671478271484 10.94112503528595 7.96068000793457 10.94112503528595 7.96068000793457 C 10.94112503528595 8.56611442565918 11.43366801738739 9.058704376220703 12.03917670249939 9.058704376220703 C 12.03917670249939 9.058704376220703 16.90181303024292 9.058704376220703 16.90181303024292 9.058704376220703 C 17.507217407226562 9.058704376220703 17.99986469745636 8.56611442565918 17.99986469745636 7.96068000793457 C 17.99986469745636 7.96068000793457 17.99986469745636 3.0979671478271484 17.99986469745636 3.0979671478271484 C 17.99986469745636 2.492532730102539 17.507217407226562 1.9999427795410156 16.90181303024292 1.9999427795410156 Z M 16.744933605194092 3.2548389434814453 C 16.744933605194092 3.2548389434814453 16.744933605194092 7.803808212280273 16.744933605194092 7.803808212280273 C 16.744933605194092 7.803808212280273 12.19595181941986 7.803808212280273 12.19595181941986 7.803808212280273 C 12.19595181941986 7.803808212280273 12.19595181941986 3.2548389434814453 12.19595181941986 3.2548389434814453 C 12.19595181941986 3.2548389434814453 16.744933605194092 3.2548389434814453 16.744933605194092 3.2548389434814453 Z M 16.90181303024292 10.941009521484375 C 16.90181303024292 10.941009521484375 12.03917670249939 10.941009521484375 12.03917670249939 10.941009521484375 C 11.43366801738739 10.941009521484375 10.94112503528595 11.433677673339844 10.94112503528595 12.039112091064453 C 10.94112503528595 12.039112091064453 10.94112503528595 16.90190315246582 10.94112503528595 16.90190315246582 C 10.94112503528595 17.507259368896484 11.43366801738739 17.999927520751953 12.03917670249939 17.999927520751953 C 12.03917670249939 17.999927520751953 16.90181303024292 17.999927520751953 16.90181303024292 17.999927520751953 C 17.507217407226562 17.999927520751953 17.99986469745636 17.507259368896484 17.99986469745636 16.90190315246582 C 17.99986469745636 16.90190315246582 17.99986469745636 12.039112091064453 17.99986469745636 12.039112091064453 C 17.99986469745636 11.433677673339844 17.507217407226562 10.941009521484375 16.90181303024292 10.941009521484375 Z M 16.744933605194092 12.19598388671875 C 16.744933605194092 12.19598388671875 16.744933605194092 16.745031356811523 16.744933605194092 16.745031356811523 C 16.744933605194092 16.745031356811523 12.19595181941986 16.745031356811523 12.19595181941986 16.745031356811523 C 12.19595181941986 16.745031356811523 12.19595181941986 12.19598388671875 12.19595181941986 12.19598388671875 C 12.19595181941986 12.19598388671875 16.744933605194092 12.19598388671875 16.744933605194092 12.19598388671875 Z"/>
        </svg>

<svg width="20" height="20" xmlns="http://www.w3.org/2000/svg">

 <g>
  <title>background</title>
  <rect fill="none" id="canvas_background" height="22" width="22" y="-1" x="-1"/>
 </g>
 <g>
  <title>Layer 1</title>
  <path id="svg_1" d="m7.960729,10.94101c0,0 -4.862845,0 -4.862845,0c-0.605404,0 -1.097947,0.492667 -1.097947,1.098102c0,0 0,4.862791 0,4.862791c0,0.605356 0.492543,1.098024 1.097947,1.098024c0,0 4.862845,0 4.862845,0c0.605403,0 1.098052,-0.492668 1.098052,-1.098024c0,0 0,-4.862791 0,-4.862791c0,-0.605434 -0.492648,-1.098102 -1.098052,-1.098102zm-0.15688,1.254973c0,0 0,4.549047 0,4.549047c0,0 -4.549086,0 -4.549086,0c0,0 0,-4.549047 0,-4.549047c0,0 4.549086,0 4.549086,0zm0.15688,-10.196041c0,0 -4.862845,0 -4.862845,0c-0.605404,0 -1.097947,0.49259 -1.097947,1.098024c0,0 0,4.862713 0,4.862713c0,0.605434 0.492543,1.098024 1.097947,1.098024c0,0 4.862845,0 4.862845,0c0.605403,0 1.098052,-0.49259 1.098052,-1.098024c0,0 0,-4.862713 0,-4.862713c0,-0.605434 -0.492648,-1.098024 -1.098052,-1.098024zm-0.15688,1.254896c0,0 0,4.548969 0,4.548969c0,0 -4.549086,0 -4.549086,0c0,0 0,-4.548969 0,-4.548969c0,0 4.549086,0 4.549086,0zm9.097964,-1.254896c0,0 -4.862637,0 -4.862637,0c-0.605509,0 -1.098052,0.49259 -1.098052,1.098024c0,0 0,4.862713 0,4.862713c0,0.605434 0.492543,1.098024 1.098052,1.098024c0,0 4.862637,0 4.862637,0c0.605404,0 1.098051,-0.49259 1.098051,-1.098024c0,0 0,-4.862713 0,-4.862713c0,-0.605434 -0.492647,-1.098024 -1.098051,-1.098024zm-0.156879,1.254896c0,0 0,4.548969 0,4.548969c0,0 -4.548983,0 -4.548983,0c0,0 0,-4.548969 0,-4.548969c0,0 4.548983,0 4.548983,0zm0.156879,7.686172c0,0 -4.862637,0 -4.862637,0c-0.605509,0 -1.098052,0.492667 -1.098052,1.098102c0,0 0,4.862791 0,4.862791c0,0.605356 0.492543,1.098024 1.098052,1.098024c0,0 4.862637,0 4.862637,0c0.605404,0 1.098051,-0.492668 1.098051,-1.098024c0,0 0,-4.862791 0,-4.862791c0,-0.605434 -0.492647,-1.098102 -1.098051,-1.098102zm-0.156879,1.254973c0,0 0,4.549047 0,4.549047c0,0 -4.548983,0 -4.548983,0c0,0 0,-4.549047 0,-4.549047c0,0 4.548983,0 4.548983,0z"/>
 </g>
</svg>
